svg/m/HT.svg

<svg width="20" height="15" viewBox="0 0 20 15" fill="none" xmlns="http://www.w3.org/2000/svg">
<mask id="mask0" mask-type="alpha" maskUnits="userSpaceOnUse" x="0" y="0" width="20" height="15">
<rect width="20" height="15" fill="white"/>
</mask>
<g mask="url(#mask0)">
<path fill-rule="evenodd" clip-rule="evenodd" d="M0 0V15H20V0H0Z" fill="#2E42A5"/>
<mask id="mask1" mask-type="alpha" maskUnits="userSpaceOnUse" x="0" y="0" width="20" height="15">
<path fill-rule="evenodd" clip-rule="evenodd" d="M0 0V15H20V0H0Z" fill="white"/>
</mask>
<g mask="url(#mask1)">
<path fill-rule="evenodd" clip-rule="evenodd" d="M0 7.5V15H20V7.5H0Z" fill="#E31D1C"/>
<rect x="6.25" y="5" width="7.5" height="5" fill="white"/>
<mask id="mask2" mask-type="alpha" maskUnits="userSpaceOnUse" x="6" y="5" width="8" height="5">
<rect x="6.25" y="5" width="7.5" height="5" fill="white"/>
</mask>
<g mask="url(#mask2)">
<path fill-rule="evenodd" clip-rule="evenodd" d="M6.25 9.11114C6.25 9.11114 8.05021 8.63781 10 8.6667C11.9498 8.69559 13.75 9.22226 13.75 9.22226V10H6.25V9.11114Z" fill="#279E19"/>
<path d="M10.046 5.56326C10.046 5.56326 9.46411 5.30115 9.0579 5.30115C8.65169 5.30115 8.42603 5.70122 8.42603 5.70122" stroke="#026A16" stroke-width="0.5"/>
<path d="M10.1753 5.82603C10.1753 5.82603 9.63986 5.63452 9.26607 5.63452C8.89228 5.63452 8.68463 5.92683 8.68463 5.92683" stroke="#026A16" stroke-width="0.5"/>
<path d="M10.1753 6.0482C10.1753 6.0482 9.77921 5.85669 9.5027 5.85669C9.22618 5.85669 9.07257 6.149 9.07257 6.149" stroke="#026A16" stroke-width="0.5"/>
<path d="M10.0125 6.27049C10.0125 6.27049 9.76775 6.07898 9.59691 6.07898C9.42608 6.07898 9.33118 6.37129 9.33118 6.37129" stroke="#026A16" stroke-width="0.5"/>
<path d="M9.99152 6.42206C9.99152 6.42206 9.89367 6.30115 9.82537 6.30115C9.75706 6.30115 9.71912 6.4857 9.71912 6.4857" stroke="#026A16" stroke-width="0.5"/>
<path d="M9.95398 5.56326C9.95398 5.56326 10.5359 5.30115 10.9421 5.30115C11.3483 5.30115 11.574 5.70122 11.574 5.70122" stroke="#026A16" stroke-width="0.5"/>
<path d="M9.82469 5.82603C9.82469 5.82603 10.3601 5.63452 10.7339 5.63452C11.1077 5.63452 11.3154 5.92683 11.3154 5.92683" stroke="#026A16" stroke-width="0.5"/>
<path d="M9.82468 6.0482C9.82468 6.0482 10.2208 5.85669 10.4973 5.85669C10.7738 5.85669 10.9274 6.149 10.9274 6.149" stroke="#026A16" stroke-width="0.5"/>
<path d="M9.98753 6.27049C9.98753 6.27049 10.2323 6.07898 10.4031 6.07898C10.5739 6.07898 10.6688 6.37129 10.6688 6.37129" stroke="#026A16" stroke-width="0.5"/>
<path d="M10.0085 6.42206C10.0085 6.42206 10.1063 6.30115 10.1746 6.30115C10.2429 6.30115 10.2809 6.4857 10.2809 6.4857" stroke="#026A16" stroke-width="0.5"/>
<path fill-rule="evenodd" clip-rule="evenodd" d="M9.92974 6.4989C9.92974 6.4989 9.85834 7.33478 9.85834 7.67497C9.85834 8.01516 9.92974 8.74917 9.92974 8.74917H10.1134C10.1134 8.74917 10.1134 7.95896 10.1134 7.67497C10.1134 7.39098 10.0056 6.4989 10.0056 6.4989H9.92974Z" fill="#FECA00"/>
<path fill-rule="evenodd" clip-rule="evenodd" d="M9.2075 7.4491C9.2075 7.4491 8.75488 7.69136 8.75488 8.40854L9.2075 9.27452H10.0243V7.84844L9.2075 7.4491Z" fill="#C51918"/>
<path fill-rule="evenodd" clip-rule="evenodd" d="M8.5368 6.76624C8.5368 6.76624 7.48004 7.0793 7.48004 8.23418L8.84917 8.35097C8.84917 8.35097 8.77438 7.68001 9.19571 7.36964L8.5368 6.76624Z" fill="#0A328C"/>
<path d="M8.10059 6.32556L9.91338 7.98685" stroke="#FFD018" stroke-width="0.5"/>
<path d="M7.47095 6.70178L9.99936 8.34364" stroke="#FFD018" stroke-width="0.5"/>
<path d="M7.03571 7.33716L9.88545 8.64045" stroke="#FFD018" stroke-width="0.5"/>
<path fill-rule="evenodd" clip-rule="evenodd" d="M7.48737 8.2251L9.3784 8.43653L9.27194 8.70044H8.97213L9.17632 8.84955L9.63676 8.95731V8.70044H10.04V9.24617H9.17632L8.84506 8.84955C8.84506 8.84955 8.56684 9.12381 8.29531 9.12381C8.02378 9.12381 7.75609 9.03474 7.75609 8.73563C7.75609 8.43653 7.75609 8.52754 7.75609 8.52754L7.48737 8.43653V8.2251Z" fill="#FECA00"/>
<path fill-rule="evenodd" clip-rule="evenodd" d="M10.5338 7.4491C10.5338 7.4491 10.9865 7.69136 10.9865 8.40854L10.5338 9.27452H9.71701V7.84844L10.5338 7.4491Z" fill="#C51918"/>
<path fill-rule="evenodd" clip-rule="evenodd" d="M11.2045 6.76624C11.2045 6.76624 12.2613 7.0793 12.2613 8.23418L10.8922 8.35097C10.8922 8.35097 10.9669 7.68001 10.5456 7.36964L11.2045 6.76624Z" fill="#0A328C"/>
<path d="M11.6407 6.32556L9.82795 7.98685" stroke="#FFD018" stroke-width="0.5"/>
<path d="M12.2704 6.70178L9.74197 8.34364" stroke="#FFD018" stroke-width="0.5"/>
<path d="M12.7056 7.33716L9.85588 8.64045" stroke="#FFD018" stroke-width="0.5"/>
<path fill-rule="evenodd" clip-rule="evenodd" d="M12.254 8.2251L10.3629 8.43653L10.4694 8.70044H10.7692L10.565 8.84955L10.1046 8.95731V8.70044H9.70133V9.24617H10.565L10.8963 8.84955C10.8963 8.84955 11.1745 9.12381 11.446 9.12381C11.7175 9.12381 11.9852 9.03474 11.9852 8.73563C11.9852 8.43653 11.9852 8.52754 11.9852 8.52754L12.254 8.43653V8.2251Z" fill="#FECA00"/>
</g>
</g>
</g>
</svg>

<svg width="20" height="15" fill="none" xmlns="http://www.w3.org/2000/svg">
  <mask id="a" maskUnits="userSpaceOnUse" x="0" y="0" width="20" height="15">
    <path fill="#fff" d="M0 0h20v15H0z"/>
  </mask>
  <g mask="url(#a)">
    <path fill-rule="evenodd" clip-rule="evenodd" d="M0 0v15h20V0H0z" fill="#2E42A5"/>
    <mask id="b" maskUnits="userSpaceOnUse" x="0" y="0" width="20" height="15">
      <path fill-rule="evenodd" clip-rule="evenodd" d="M0 0v15h20V0H0z" fill="#fff"/>
    </mask>
    <g mask="url(#b)">
      <path fill-rule="evenodd" clip-rule="evenodd" d="M0 7.5V15h20V7.5H0z" fill="#E31D1C"/>
      <path fill="#fff" d="M6.25 5h7.5v5h-7.5z"/>
      <mask id="c" maskUnits="userSpaceOnUse" x="6" y="5" width="8" height="5">
        <path fill="#fff" d="M6.25 5h7.5v5h-7.5z"/>
      </mask>
      <g mask="url(#c)">
        <path fill-rule="evenodd" clip-rule="evenodd" d="M6.25 9.111s1.8-.473 3.75-.444c1.95.029 3.75.555 3.75.555V10h-7.5v-.889z" fill="#279E19"/>
        <path d="M10.046 5.563s-.582-.262-.988-.262-.632.4-.632.4" stroke="#026A16" stroke-width=".5"/>
        <path d="M10.175 5.826s-.535-.192-.909-.192-.581.293-.581.293" stroke="#026A16" stroke-width=".5"/>
        <path d="M10.175 6.048s-.396-.191-.672-.191c-.277 0-.43.292-.43.292" stroke="#026A16" stroke-width=".5"/>
        <path d="M10.012 6.27s-.244-.191-.415-.191c-.17 0-.266.292-.266.292" stroke="#026A16" stroke-width=".5"/>
        <path d="M9.992 6.422s-.098-.12-.167-.12c-.068 0-.106.184-.106.184m.235-.923s.582-.262.988-.262.632.4.632.4" stroke="#026A16" stroke-width=".5"/>
        <path d="M9.825 5.826s.535-.192.909-.192.581.293.581.293" stroke="#026A16" stroke-width=".5"/>
        <path d="M9.825 6.048s.396-.191.672-.191c.277 0 .43.292.43.292" stroke="#026A16" stroke-width=".5"/>
        <path d="M9.988 6.27s.244-.191.415-.191c.17 0 .266.292.266.292" stroke="#026A16" stroke-width=".5"/>
        <path d="M10.008 6.422s.098-.12.167-.12c.068 0 .106.184.106.184" stroke="#026A16" stroke-width=".5"/>
        <path fill-rule="evenodd" clip-rule="evenodd" d="M9.93 6.499s-.072.836-.072 1.176c0 .34.072 1.074.072 1.074h.183V7.675c0-.284-.107-1.176-.107-1.176H9.93z" fill="#FECA00"/>
        <path fill-rule="evenodd" clip-rule="evenodd" d="M9.208 7.449s-.453.242-.453.96l.453.865h.816V7.848l-.816-.399z" fill="#C51918"/>
        <path fill-rule="evenodd" clip-rule="evenodd" d="M8.537 6.766S7.48 7.08 7.48 8.234l1.37.117s-.076-.671.346-.981l-.66-.604z" fill="#0A328C"/>
        <path d="M8.1 6.326l1.813 1.66M7.471 6.702l2.528 1.642M7.036 7.337l2.85 1.304" stroke="#FFD018" stroke-width=".5"/>
        <path fill-rule="evenodd" clip-rule="evenodd" d="M7.487 8.225l1.891.212-.106.263h-.3l.204.15.46.107V8.7h.404v.546h-.864l-.33-.396s-.28.274-.55.274c-.272 0-.54-.09-.54-.388v-.208l-.269-.091v-.212z" fill="#FECA00"/>
        <path fill-rule="evenodd" clip-rule="evenodd" d="M10.534 7.449s.452.242.452.96l-.452.865h-.817V7.848l.817-.399z" fill="#C51918"/>
        <path fill-rule="evenodd" clip-rule="evenodd" d="M11.204 6.766s1.057.313 1.057 1.468l-1.369.117s.075-.671-.346-.981l.659-.604z" fill="#0A328C"/>
        <path d="M11.64 6.326l-1.812 1.66m2.442-1.284L9.742 8.344m2.964-1.007l-2.85 1.304" stroke="#FFD018" stroke-width=".5"/>
        <path fill-rule="evenodd" clip-rule="evenodd" d="M12.254 8.225l-1.891.212.106.263h.3l-.204.15-.46.107V8.7H9.7v.546h.864l.331-.396s.278.274.55.274.54-.09.54-.388v-.208l.268-.091v-.212z" fill="#FECA00"/>
      </g>
    </g>
  </g>
</svg>
